X:1
T:There’s a Place in God’s Planning for You
T:There’s a Place in God’s Planning for You
T:Haldor Lillenas
T:Albert A. Rand, 1917
T:Public Domain Courtesy of the Cyber Hymnal™
T:Public Domain Courtesy of the Cyber Hymnal™
C:Haldor Lillenas
Z:Public Domain
Z:Courtesy of the Cyber Hymnal™
%%score ( 1 2 ) ( 3 4 )
L:1/8
Q:1/4=135
M:6/4
K:F
V:1 treble 
V:2 treble 
V:3 bass 
V:4 bass 
V:1
 F[FG] | [FA]2 [FA]2 [FA]2 [FA]2 [FG]2 F2 | [Fd]6 [Fc]4 F[FG] | [FA]2 [FA]2 [CG]2 | %4
w: 1.~Is your|way thorn be- set and un-|cer- tain? Is dis-|cour- age- ment|
w: 2.~Does the|best you can do seem un-|wor- thy? Are your|chanc- es for|
w: 3.~Does your|light seem so flick- ering and|fee- ble? That you’re|tempt- ed to|
w: 4.~Why then|waste pre- cious mo- ments in|seek- ing For some|dis- tant or|
 [DF]2 [DE]2 [DF]2 | G6- [EG]4 F[FG] | [FA]2 [FA]2 [FA]2 [FA]2 [FG]2 F2 | [Fd]6 [Fc]4 [Fc][Fd] | %8
w: wait- ing there,|too? Wea- ry soul,|don’t des- pair— trust in Je-|sus, There’s a place|
w: ser- vice but|few? Wi- dow’s mites|oft- en bring rich- est bless-|ings, There’s a place|
w: hide it from|view? Though a spark,|it may kin- dle a bea-|con; There’s a place|
w: great work to|do? Give your- self|to the task that lies near-|est, There’s a place|
 [Ee]2 [EG]2 [EG]2 [FA]2 [FA]2 [F=B]2 | [Fd]4 [Fe]2 !fermata![Ec]4 ||"^Refrain" [FA][GB] | %11
w: in God’s plan- ning for you,|for you. *||
w: in God’s plan- ning for you,|for you. There’s|a place|
w: in God’s plan- ning for you,|for you. *||
w: in God’s plan- ning for you,|for you. *||
 [Ac]2 [^G=B]2 [Ac]2 [_Bd]2 [Ac]2 [FA]2 | c6- [Ec]4 [FA][FA] | %13
w: ||
w: in God’s plan- ning for you,|And a work that|
w: ||
w: ||
 [EA]2 [EA]2 [EA]2 [^CE]2 [DF]2 [CG]2 | [DF]6- [DF]4 [DF][DF] | %15
w: ||
w: * none o- ther can do;|Do * your best,|
w: ||
w: ||
 [Fd]2 [Fd]2 [Fd]2 [Fc]2 [Fc]2 [Fc]2 | [F=B]6 !fermata![Ff]4 F[FG] | %17
w: ||
w: take your share of the bless-|ing: There’s a place|
w: ||
w: ||
 [FA]2 [Fc]2 [FA]2 [FB]2 [FA]2 [EG]2 | F6- [CF]4 |] %19
w: ||
w: in God’s plan- ning for you.||
w: ||
w: ||
V:2
 F x | x10 F2 | x10 F x | x6 | x6 | (E4 F2 F) x5 | x10 F2 | x12 | x12 | x10 || x2 | x12 | %12
 F4 ^D2 x6 | x12 | x12 | x12 | x10 F x | x12 | F2 C2 =B,2 x4 |] %19
V:3
 [F,A,][F,B,] | [F,C]2 [F,C]2 [F,C]2 [F,C]2 [F,B,]2 [F,A,]2 | [F,B,]6 [F,A,]4 [F,A,][F,B,] | %3
w: ~ ~|~ ~ ~ ~ ~ ~|~ ~ ~ ~|
 [F,C]2 [F,C]2 [C,B,]2 | [D,A,]2 [D,A,]2 [G,,=B,]2 | (C4 [D,=B,]2 _B,4) [F,A,][F,B,] | %6
w: ~ ~ ~|~ ~ ~|~ * * ~ ~|
 [F,C]2 [F,C]2 [F,C]2 [F,C]2 [F,B,]2 [F,A,]2 | [F,B,]6 [F,A,]4 [F,A,][F,A,] | %8
w: ~ ~ ~ ~ ~ ~|~ ~ ~ ~|
 [G,C]2 [G,C]2 [G,C]2 [G,=B,]2 [G,B,]2 [G,D]2 | [G,=B,]4 [G,B,]2 !fermata![C,C]4 || [F,C][F,C] | %11
w: ~ ~ ~ ~ ~ ~|~ ~ ~|~ ~|
 [F,F]2 [F,F]2 [F,F]2 [F,F]2 [F,F]2 [F,C]2 | [F,A,]4 [^F,A,]2 [G,B,]4 [=F,C][F,C] | %13
w: ~ ~ ~ ~ ~ ~|~ for you ~ ~|
 [A,^C]2 [A,C]2 [A,C]2 [G,A,]2 [F,A,]2 [E,A,]2 | A,6- A,4 [D,A,][D,A,] | %15
w: ~ ~ ~ ~ ~ ~|~ * ~ can|
 [B,,B,]2 [B,,B,]2 [B,,B,]2 [C,A,]2 [C,A,]2 [C,A,]2 | [_D,^G,]6 !fermata![D,G,]4 [C,A,][C,B,] | %17
w: ~ ~ ~ ~ ~ ~|~ ~ ~ ~|
 [C,C]2 [C,A,]2 [C,C]2 [C,D]2 [C,C]2 [C,B,]2 | (A,4 ^G,2 [F,A,]4) |] %19
w: ~ ~ ~ ~ ~ ~|~ ~ for|
V:4
 x2 | x12 | x12 | x6 | x6 | C,8 x4 | x12 | x12 | x12 | x10 || x2 | x12 | x12 | x12 | %14
w: ||||||||||||||
 D,2 A,,2 D,2 (F,2 E,2) x2 | x12 | x12 | x12 | F,6- x4 |] %19
w: * * * do, *|||||

